X:20
T: I'll Buy Boots for Maggie
S: M.Dugger
Z: B.Black
R: polka
M: 2/4
L: 1/8
K: Am
EA AB | cB AB | FA AB | cB A2 |
^FA AB | cB AB | e2 dB | BA A2 :|
A>B cd | eg a2 | e2 dB | BA G2 |
A>B cd | eg a2 | e2 dB | BA A2 :|
